packages/core/src/svgs/tokens/mono/GOFX.svg

<svg width="24" height="24" viewBox="0 0 24 24" fill="none" xmlns="http://www.w3.org/2000/svg">
<path d="M15.4934 2.09421C16.2684 2.21921 16.8121 2.36921 17.1371 2.56294C17.4497 2.75045 17.7934 3.12543 18.1558 3.68791C17.9621 3.85041 17.7934 3.93791 17.6496 3.9629C17.2558 4.03166 16.8809 3.88166 16.5309 3.72542C16.3478 3.64469 16.1407 3.63728 15.9523 3.70473C15.764 3.77217 15.6086 3.90933 15.5184 4.08791C15.3935 4.3379 15.4621 4.66288 15.6746 4.85039C15.8808 5.02539 16.1996 5.06914 16.4496 5.14412C16.5996 5.26287 16.6683 5.42537 16.6496 5.63162C16.6308 5.8441 16.5309 6.04411 16.3497 6.2441L16.6371 7.01283C16.2934 7.08783 15.8747 7.11282 15.3872 7.08158C14.5684 7.03158 13.9747 6.2316 13.2622 5.86911C12.8467 5.78532 12.4235 5.74552 11.9997 5.75036C8.24983 5.75036 5.74989 8.67528 5.74989 12.0003C5.74989 15.2876 8.56233 18.2501 12.0497 18.2501C14.8122 18.2501 16.5808 16.9063 17.6247 15.1251H15.6872C14.7184 15.1251 13.8623 14.6252 13.5935 13.7189L13.2684 12.5502C13.2565 12.5117 13.2502 12.4717 13.2498 12.4315C13.2514 12.3164 13.2982 12.2068 13.38 12.1261C13.4619 12.0455 13.5722 12.0001 13.6873 12.0003H20.812C21.3994 12.0003 21.912 12.4378 21.9807 13.0065L21.9995 13.2502C22.0182 14.2752 21.4683 15.7001 20.9433 16.6875C20.0819 18.2963 18.7992 19.6404 17.2327 20.5762C15.666 21.512 13.8745 22.004 12.0497 21.9999C9.39302 21.9999 6.84437 20.9481 4.96111 19.0742C3.07785 17.2003 2.01321 14.6568 2 12.0003C2 6.80034 6.04363 2.60669 11.1873 2.17546C11.8747 2.07546 12.5622 1.9942 13.2498 2.00046C13.8623 2.00046 14.606 2.03795 15.4934 2.09421ZM18.4371 4.0379C18.7184 4.25665 18.8995 4.4379 18.9809 4.58164C19.0558 4.71915 19.1308 4.95663 19.2057 5.28788L19.2183 5.35037L21.1183 7.02532C21.2245 7.11908 21.2996 7.23783 21.3245 7.37531L21.3308 7.41282L21.3494 7.53781C21.3522 7.56317 21.347 7.58873 21.3347 7.61109C21.3225 7.63343 21.3036 7.65147 21.2807 7.66282L21.2619 7.66906L21.162 7.70656L21.0683 7.69407C19.1433 7.44407 17.9684 7.22533 17.5433 7.05033C17.1684 6.89408 17.0871 6.53784 17.2996 5.98161C17.412 5.70662 17.2996 5.46912 17.1996 5.21912C17.0997 4.98164 16.8684 4.81288 16.6934 4.63789C16.4872 4.6004 16.3059 4.63789 16.1058 4.56289C16.0773 4.54946 16.0517 4.53033 16.0309 4.50664C15.9059 4.38165 15.9934 4.17541 16.1433 4.10666C16.3934 3.98166 16.7246 4.16915 16.9308 4.3004C17.3371 4.38165 17.637 4.40039 17.8309 4.36915C18.0184 4.3379 18.2246 4.2254 18.4371 4.0379Z" fill="white"/>
</svg>

<svg xmlns="http://www.w3.org/2000/svg" width="24" height="24" fill="none" viewBox="0 0 24 24">
    <path fill="#fff" d="M15.493 2.094c.775.125 1.32.275 1.644.469.313.187.656.562 1.019 1.125-.194.162-.363.25-.506.275-.394.069-.77-.081-1.12-.238a.78.78 0 0 0-1.012.363.65.65 0 0 0 .157.762c.206.175.525.22.775.294q.226.178.2.488c-.02.212-.12.412-.3.612l.287.769q-.517.114-1.25.069c-.819-.05-1.412-.85-2.125-1.213A6 6 0 0 0 12 5.75c-3.75 0-6.25 2.925-6.25 6.25 0 3.288 2.812 6.25 6.3 6.25 2.762 0 4.53-1.344 5.575-3.125h-1.938c-.969 0-1.825-.5-2.093-1.406l-.326-1.169a.4.4 0 0 1-.018-.119.437.437 0 0 1 .437-.43h7.125c.587 0 1.1.437 1.169 1.006l.018.243c.02 1.025-.53 2.45-1.056 3.438A10.06 10.06 0 0 1 12.05 22 10.05 10.05 0 0 1 2 12c0-5.2 4.044-9.393 9.187-9.825.688-.1 1.375-.18 2.063-.175.612 0 1.356.038 2.243.094m2.944 1.944q.421.328.544.544.112.208.225.706l.012.062 1.9 1.675a.6.6 0 0 1 .207.35l.006.038.018.125a.12.12 0 0 1-.068.125l-.02.006-.099.038-.094-.013c-1.925-.25-3.1-.469-3.525-.644q-.563-.234-.243-1.068c.112-.275 0-.513-.1-.763-.1-.237-.332-.406-.507-.581-.206-.038-.387 0-.587-.075a.2.2 0 0 1-.075-.056c-.125-.125-.038-.332.112-.4.25-.125.582.062.788.193.406.082.706.1.9.07.187-.032.394-.145.606-.332"/>
</svg>
